icons/video-single-server-24.svg

<?xml version="1.0" encoding="UTF-8"?><svg id="icons" xmlns="http://www.w3.org/2000/svg" viewBox="0 0 24 24"><path d="m6,9h-1v-1h1v1Zm2-1h-1v1h1v-1Zm2,0h-1v1h1v-1Zm2.71976,2H3v-3h18v1.93076c.35901.23059.69373.49438,1,.789v-3.71976H2v5h9.93076c.23059-.35901.49438-.69373.789-1Zm10.25524,4.5c0,3.01893-2.45607,5.475-5.475,5.475s-5.475-2.45607-5.475-5.475,2.45607-5.475,5.475-5.475,5.475,2.45607,5.475,5.475Zm-.975,0c0-2.48102-2.01898-4.5-4.5-4.5s-4.5,2.01898-4.5,4.5,2.01898,4.5,4.5,4.5,4.5-2.01898,4.5-4.5Zm-1,0l-5,3.5v-7l5,3.5Zm-4,1.5791l2.25635-1.5791-2.25635-1.5791v3.1582Z"/><path fill="none" d="M0 0h24v24H0z"/></svg>

<svg xmlns="http://www.w3.org/2000/svg" viewBox="0 0 24 24"><path d="M6 9H5V8h1v1zm2-1H7v1h1V8zm2 0H9v1h1V8zm2.72 2H3V7h18v1.93c.359.231.694.495 1 .79V6H2v5h9.93c.231-.359.495-.694.79-1zm10.255 4.5c0 3.019-2.456 5.475-5.475 5.475s-5.475-2.456-5.475-5.475 2.456-5.475 5.475-5.475 5.475 2.456 5.475 5.475zm-.975 0c0-2.481-2.019-4.5-4.5-4.5S13 12.019 13 14.5s2.019 4.5 4.5 4.5 4.5-2.019 4.5-4.5zm-1 0L16 18v-7l5 3.5zm-4 1.58l2.256-1.58L17 12.92v3.16z"/><path fill="none" d="M0 0h24v24H0z"/></svg>
